public/img/workshop-fb.svg

<svg width="12" height="20" viewBox="0 0 12 20" fill="none" xmlns="http://www.w3.org/2000/svg">
<path d="M10.9995 0.00416129L8.40595 0C5.49221 0 3.60923 1.93188 3.60923 4.92198V7.19134H1.00156C0.776223 7.19134 0.59375 7.37402 0.59375 7.59935V10.8874C0.59375 11.1127 0.776431 11.2952 1.00156 11.2952H3.60923V19.592C3.60923 19.8173 3.7917 19.9998 4.01704 19.9998H7.41931C7.64464 19.9998 7.82712 19.8171 7.82712 19.592V11.2952H10.8761C11.1014 11.2952 11.2839 11.1127 11.2839 10.8874L11.2851 7.59935C11.2851 7.49116 11.2421 7.38754 11.1657 7.31097C11.0894 7.23441 10.9853 7.19134 10.8771 7.19134H7.82712V5.26757C7.82712 4.34293 8.04746 3.87354 9.25194 3.87354L10.9991 3.87291C11.2242 3.87291 11.4067 3.69023 11.4067 3.46511V0.411968C11.4067 0.18705 11.2244 0.00457742 10.9995 0.00416129Z" fill="#333333"/>
</svg>

<svg width="12" height="20" fill="none" xmlns="http://www.w3.org/2000/svg"><path d="M11 .004L8.405 0C5.492 0 3.609 1.932 3.609 4.922v2.27H1.002a.408.408 0 00-.408.407v3.288c0 .226.182.408.408.408h2.607v8.297c0 .225.183.408.408.408h3.402a.408.408 0 00.408-.408v-8.297h3.05a.408.408 0 00.407-.408l.001-3.288a.408.408 0 00-.408-.408h-3.05V5.268c0-.925.22-1.394 1.425-1.394l1.747-.001a.408.408 0 00.408-.408V.412a.408.408 0 00-.408-.408z" fill="#333"/></svg>
